X:18781
T:Willa Fjord
C:Trad
M:2/4
K:D
|:dB | A2FA DAFA | B2GB DBGB | A2FA DAFA | EFGA GFED |
A2FA DAFA | B2GB DBGB | ABcd efge | fdec d2:|
|: de |f2df afdf | (3gfe ae gfeg | f2df afdf | e2ce Aece |
f2df afdf | (3gfe ae gfec | ABcd efge | fdec d2:|


